; generated by Slic3r 1.1.7 on 2015-01-22 at 08:10:42

; perimeters extrusion width = 2.00mm
; infill extrusion width = 2.00mm
; solid infill extrusion width = 2.00mm
; top infill extrusion width = 2.00mm

G21 ; set units to millimeters
M104 S205 ; set temperature
G28 ; home all axes
G1 Z5 F1200 ; lift nozzle
M104 S205 ; set temperature
M116 ; wait for temperature to be reached
G90 ; use absolute coordinates
G92 E0
M82 ; use absolute distances for extrusion
G1 Z2.000 F1800.000
G1 X16.010 Y19.809 F1800.000
G1 X25.000 Y14.619 E13.21775 F600.000
G1 X33.990 Y19.809 E26.43550
G1 X33.990 Y30.191 E39.65325
G1 X25.000 Y35.381 E52.87100
G1 X16.010 Y30.191 E66.08875
G1 X16.010 Y20.109 E78.92453
G1 X15.326 Y17.930 F1800.000
G1 X15.010 Y18.077 F1800.000
G1 X25.000 Y12.309 E93.61249 F600.000
G1 X30.495 Y15.482 E101.69158
G1 X35.990 Y18.655 E109.77067 F600.000
G1 X35.990 Y31.345 E125.92884
G1 X25.000 Y37.691 E142.08701
G1 X14.010 Y31.345 E158.24518
G1 X14.010 Y18.655 E174.40335
G1 X14.750 Y18.227 E175.49159
G1 X30.967 Y17.426 F1800.000
M104 S0 ; turn off temperature
G28 X0  ; home X axis
M84     ; disable motors
; filament used = 175.5mm (0.6cm3)

; avoid_crossing_perimeters = 0
; bed_size = 50,50
; bed_temperature = 0
; bridge_acceleration = 0
; bridge_fan_speed = 100
; bridge_flow_ratio = 1
; brim_width = 0
; complete_objects = 0
; cooling = 0
; default_acceleration = 0
; disable_fan_first_layers = 1
; duplicate_distance = 6
; end_gcode = M104 S0 ; turn off temperature\nG28 X0  ; home X axis\nM84     ; disable motors
; external_perimeters_first = 0
; extruder_clearance_height = 20
; extruder_clearance_radius = 20
; extruder_offset = 0x0
; extrusion_axis = E
; extrusion_multiplier = 1
; fan_always_on = 0
; fan_below_layer_time = 60
; filament_diameter = 2
; first_layer_acceleration = 0
; first_layer_bed_temperature = 0
; first_layer_extrusion_width = 2
; first_layer_speed = 10
; first_layer_temperature = 205
; g0 = 0
; gcode_arcs = 0
; gcode_comments = 0
; gcode_flavor = teacup
; infill_acceleration = 0
; infill_first = 0
; layer_gcode = 
; max_fan_speed = 100
; min_fan_speed = 35
; min_print_speed = 10
; min_skirt_length = 0
; notes = 
; nozzle_diameter = 2
; only_retract_when_crossing_perimeters = 1
; ooze_prevention = 0
; output_filename_format = [input_filename_base].gcode
; perimeter_acceleration = 0
; post_process = 
; print_center = 25,25
; resolution = 0
; retract_before_travel = 2
; retract_layer_change = 1
; retract_length = 0
; retract_length_toolchange = 0
; retract_lift = 0
; retract_restart_extra = 0
; retract_restart_extra_toolchange = 0
; retract_speed = 30
; skirt_distance = 6
; skirt_height = 1
; skirts = 0
; slowdown_below_layer_time = 30
; spiral_vase = 0
; standby_temperature_delta = -5
; start_gcode = G28 ; home all axes\nG1 Z5 F1200 ; lift nozzle
; temperature = 200
; threads = 2
; toolchange_gcode = 
; travel_speed = 30
; use_firmware_retraction = 0
; use_relative_e_distances = 0
; vibration_limit = 0
; wipe = 0
; z_offset = 0
; dont_support_bridges = 1
; extrusion_width = 2
; first_layer_height = 2
; infill_only_where_needed = 0
; interface_shells = 0
; layer_height = 2
; raft_layers = 0
; seam_position = aligned
; support_material = 0
; support_material_angle = 0
; support_material_enforce_layers = 0
; support_material_extruder = 1
; support_material_extrusion_width = 2
; support_material_interface_extruder = 1
; support_material_interface_layers = 3
; support_material_interface_spacing = 0
; support_material_interface_speed = 10
; support_material_pattern = honeycomb
; support_material_spacing = 2.5
; support_material_speed = 10
; support_material_threshold = 0
; bottom_solid_layers = 2
; bridge_speed = 10
; external_perimeter_speed = 10
; extra_perimeters = 1
; fill_angle = 45
; fill_density = 10%
; fill_pattern = rectilinear
; gap_fill_speed = 10
; infill_every_layers = 1
; infill_extruder = 1
; infill_extrusion_width = 2
; infill_speed = 10
; overhangs = 1
; perimeter_extruder = 1
; perimeter_extrusion_width = 2
; perimeter_speed = 10
; perimeters = 2
; small_perimeter_speed = 10
; solid_fill_pattern = rectilinear
; solid_infill_below_area = 70
; solid_infill_every_layers = 0
; solid_infill_extrusion_width = 2
; solid_infill_speed = 10
; thin_walls = 1
; top_infill_extrusion_width = 2
; top_solid_infill_speed = 10
; top_solid_layers = 2

